X:1
T:Banks of Forth, The
T:Banks of Forth, The
T:James Oswald
C:James Oswald
L:1/8
Q:1/4=120
M:4/4
K:D
V:1 treble 
V:1
"^Slow" TF>E | D2 (F>G) A2 (d>e) | f>g (f/e/)(d/c/) B3 d | A2 (B/c/)d (B/A/)(G/F/) TED | %4
 G>A (B/A/)(G/F/) E2 (TF>E) | D2 (TF>G) A2 (d>e) | f>g (f/e/d/c/) B3 c | cd (f/g/a) Te3 (d/c/) | %8
 B(c/d/) (TB>A) A3 || A | d(cd)e (f/g/)(f/g/) ac | (TBAB)c Td3 F | (GFGA) B(g/f/) ed | %13
 c(d/e/) (d/c/)(B/A/) A3 A | (BG)(Bd) (AFD)F | GB e(f/g/) Tc3 A | (B/d/c/B/ A/G/F/E/) D2 a(g/f/) | %17
 e(f/g/) (f/e/)(d/c/) d2 || %18

